X: 12
T:Y Stwffwl
M:3/4
L:1/4
Q:130
C:Trad
S:Blodau'r Grug Collection Vol. 3
A:Wales
Z:brian_martin12345@yahoo.com
K:G
d/c/|Bcd|F>GA|BGG|G2A/B/|cAd|^cde|fdd|d2:||!
B|ccc|cde|dBG|B>cd|eAG|Fdc|BGG|G2:||

